svg/u1f9ce_200d_2642.svg

<svg viewBox="0 0 128 128" xmlns="http://www.w3.org/2000/svg">
  <path id="shoe_1_" d="M102.66,116.6c0,0-4.03-1.6-6.04-3.14c-1.88-1.44-3.58-3.4-4.75-4.44 c-0.76-0.69-1.43-1-2.02-1c-0.6,0-1.13,0.31-1.58,0.86l-2.58,3.24c-1.08,1.78-0.16,4.11-0.16,4.11s-2.7,2.86,1.8,3.84 c4.61,1.01,10.13,1.56,10.13,1.56c0.29,0.05,0.64,0.08,1.02,0.08c1.9,0,4.6-0.69,5.46-2.66 C103.94,119.05,105.23,117.62,102.66,116.6z" fill="#4568AC"/>
  <path id="pants_1_" d="M85.26,111.54l-15.18-1.84c-0.01,0,5.13-15.82,6.64-23.31c0,0-12.54,3.72-18.98,3.72 c0,0-0.78,13.4-1.05,19.78c-0.36,8.44,2.25,10.91,6.28,11.81c0.92,0.21,2.01,0.3,3.21,0.3c5.32,0,12.92-1.74,19.04-2.46 C87.57,119.26,86.94,112.63,85.26,111.54z" fill="#616161"/>
  <path id="shoe" d="M47.09,119.63c-0.01-2.07-2.12-4.43-2.12-4.43l-7.62,0.01l-6.85,2.28 c-1.66,0.66-2.75,2.25-2.76,4.04v1.38c0,0.6,0.49,1.09,1.09,1.09l17.02-0.05c0.69,0,1.25-0.56,1.25-1.26L47.09,119.63z" fill="#4568AC"/>
  <path id="pants" d="M77.43,77.59c-0.03-0.27-0.24-0.47-0.53-0.44l-18.07,1.23 c-0.1,0.01-10.31,1.42-16.59,1.96c-7.44,0.64-8.14,8.01-7.84,15.13c0.25,5.96,1.91,19.67,1.93,19.81c0.02,0.15,0.11,0.29,0.24,0.37 c0.07,0.04,1.82,1.06,4.94,1.06c3.14,0,4.71-1.05,4.76-1.1c0.11-0.08,0.19-0.21,0.21-0.35l2.57-20.71c1.31-0.06,5.43-0.25,8.76-0.12 c6.45,0.26,12.94-0.08,16.78-4.26C77.16,87.38,78.12,83.14,77.43,77.59z" fill="#7C7C7C"/>
  <path id="head" d="M68.93,28.98c1.09-3.72,1.69-8.33,1.19-11.1c-0.11-0.62-0.27-1.16-0.49-1.57 c-0.63-1.11-1.47-2.18-2.46-3.14c-0.02-0.02-0.04-0.04-0.06-0.05c-0.22-0.22-0.45-0.43-0.69-0.63c-0.04-0.03-0.08-0.07-0.12-0.1 c-0.22-0.19-0.44-0.37-0.67-0.54c-0.05-0.04-0.11-0.08-0.16-0.12c-0.22-0.17-0.45-0.33-0.68-0.48c-0.06-0.04-0.12-0.08-0.18-0.12 c-0.23-0.15-0.47-0.3-0.71-0.44c-0.06-0.04-0.12-0.07-0.18-0.11c-0.25-0.14-0.5-0.27-0.75-0.4c-0.05-0.03-0.11-0.06-0.16-0.08 c-0.27-0.13-0.55-0.26-0.83-0.38c-0.03-0.01-0.07-0.03-0.1-0.04c-1.55-0.64-3.17-1.01-4.74-1.01c-0.04,0-0.08,0.01-0.11,0.01 c-0.35,0-0.69,0.02-1.03,0.06c-5.74,0.68-8.99,4.65-10.04,9.81c-0.38,1.87-0.41,3.76-0.15,5.1c0.03,0.16,0.29,1.34,0.3,1.7 c0.15,1.41-2.63,2.68-3.02,4.22c-0.29,1.15,2.11,2.01,2.29,2.22c0.91,1.09-0.83,6,5.82,6.8c2.56,0.31,2.8,0.24,3.6,0.35 c1.59,0.23,1.12,6.68,1.12,6.68l0.01,0v0l11.52-2.31c0,0-1.53-7.45,0.12-10.7C68.06,31.62,68.53,30.36,68.93,28.98z" fill="#FFCA28"/>
  <path id="mouth" d="M45.93,34.64c0.92,0.09,1.85-0.08,2.66-0.62c0.88-0.6,0.33-1.33-0.67-0.96 c-0.6,0.23-1.44,0.31-2.2,0.13L45.93,34.64z" fill="#795548"/>
  <ellipse id="eye" cx="50.2" cy="26.34" fill="#404040" rx="1.88" ry="1.22" transform="matrix(0.0138 -0.9999 0.9999 0.0138 23.1793 76.1719)"/>
  <path id="eyebrow" d="M49.38,23.52c-1.22,0.23-1.42-0.58-0.96-1.17c0.34-0.44,1.1-0.75,2.46-0.34 c1.28,0.39,1.75,1.19,2.05,1.69s0.22,0.95-0.09,0.95C52.42,24.66,50.89,23.24,49.38,23.52z" fill="#6D4C41"/>
  <g id="shirt_3_">
    <radialGradient id="SVGID_1_" cx="62.0167" cy="72.2284" gradientTransform="matrix(1 0 0 -1 0 128)" gradientUnits="userSpaceOnUse" r="17.0361">
      <stop offset="0.3637" stop-color="#00BFA5"/>
      <stop offset="0.8121" stop-color="#00B29A"/>
      <stop offset="1" stop-color="#00AB94"/>
    </radialGradient>
    <path d="M71.27,48.76c-1.86-6.37-5.03-8-7.8-8c-2.88,0-5.32,1.78-5.32,1.78 c-4.9,3.37-4.91,8.51-5.36,15.42C52.33,64.87,52,78.95,52,78.95s5.44,2.25,13.71,2.25h0.65C75,81.08,78.2,78.09,78.2,78.09 S73.6,56.72,71.27,48.76z" fill="url(#SVGID_1_)"/>
  </g>
  <linearGradient id="arm_2_" gradientTransform="matrix(1 0 0 -1 0 128)" gradientUnits="userSpaceOnUse" x1="53.1384" x2="51.0134" y1="47.9408" y2="62.3158">
    <stop offset="0.5" stop-color="#FFCA28"/>
    <stop offset="1" stop-color="#FFB300"/>
  </linearGradient>
  <path id="arm_1_" d="M71.43,66.87c-0.48-3.02-2.76-14.41-2.78-14.52c-0.05-0.25-0.28-0.42-0.54-0.4 l-10.25,0.98c-0.14,0.01-0.27,0.09-0.36,0.21c-0.08,0.12-0.11,0.26-0.08,0.4l3.56,15.21c-1.75,1.05-10.38,6.15-12.85,6.67 c-1.67,0.35-4.53,0.75-7.83,1.19c-2.64,0.36-5.28,3.82-6.62,5.85c-0.4,0.61-0.36,1.4,0.08,1.96c0.33,0.43,0.83,0.65,1.33,0.65 c0.33,0,0.66-0.1,0.94-0.3l3.57-2.12c0.51,0.07,2.01,0.25,4.05,0.16c2.52-0.11,4.97-1.19,5.05-1.23c0.91-0.35,5.26-1.12,9.47-1.87 c3.14-0.56,6.38-1.13,8.57-1.59C73,76.81,71.86,69.59,71.43,66.87z" fill="url(#arm_2_)"/>
  <g id="shirt_1_">
    <path d="M69.68,52.88c-0.5-2.91-2.88-6.55-6.78-6.55c-0.34,0-0.7,0.03-1.07,0.09 c-4.53,0.74-5.87,5.57-5.32,8.73l1.92,9.63l13.17-2.27L69.68,52.88z" fill="#04A287"/>
  </g>
  <g id="hairGroup_2_">
    <path id="hair_2_" d="M70.41,12.98c-2.56-3.14-7.23-5.18-11.69-5.37c-2.99-0.13-5.88,0.44-8.33,1.63 c-0.05,0.02-4.73,2.35-5.76,4.62c-1.11,2.43-0.08,3.84,0.18,4.09c0.4,0.39,1.29,0.26,1.29,0.26c1.75-0.15,7.35-0.57,10.18-0.02 c0.45,0.09,0.95,0.22,1.16,0.62c0.09,0.18,0.18,1.31,0.19,1.51c0.22,2.56,0.03,4.18,0.83,5.79c0.13,0.26,0.65,0.59,0.65,0.59 l1.02-1.63c0.65-0.93,1.24-1.74,2.1-1.59c2.53,0.46,2.25,4.95-0.69,6.06c0,0,0.58,3.52,3.81,4.09c2.83,0.5,3.2-0.13,3.45-1.21 c0.54-2.32,1.17-3.33,1.83-4.4c0.79-1.26,1.6-2.57,2.14-5.95C73.33,18.7,72.51,15.55,70.41,12.98z" fill="#543930"/>
    <radialGradient id="hairHighlights_1_" cx="57.8873" cy="103.7799" gradientTransform="matrix(0.9932 0.1161 0.1145 -0.9796 -11.4912 119.1628)" gradientUnits="userSpaceOnUse" r="18.0325">
      <stop offset="0.5264" stop-color="#6D4C41" stop-opacity="0"/>
      <stop offset="1" stop-color="#6D4C41"/>
    </radialGradient>
    <path id="hairHighlights_2_" d="M70.41,12.98c-2.56-3.14-7.23-5.18-11.69-5.37 c-2.99-0.13-5.88,0.44-8.33,1.63c-0.05,0.02-4.73,2.35-5.76,4.62c-1.11,2.43-0.08,3.84,0.18,4.09c0.4,0.39,1.29,0.26,1.29,0.26 c1.75-0.15,7.35-0.57,10.18-0.02c0.45,0.09,0.95,0.22,1.16,0.62c0.09,0.18,0.18,1.31,0.19,1.51c0.22,2.56,0.03,4.18,0.83,5.79 c0.13,0.26,0.65,0.59,0.65,0.59l1.02-1.63c0.65-0.93,1.24-1.74,2.1-1.59c2.53,0.46,2.25,4.95-0.69,6.06c0,0,0.58,3.52,3.81,4.09 c2.83,0.5,3.2-0.13,3.45-1.21c0.54-2.32,1.17-3.33,1.83-4.4c0.79-1.26,1.6-2.57,2.14-5.95C73.33,18.7,72.51,15.55,70.41,12.98z" fill="url(#hairHighlights_1_)"/>
  </g>
</svg>

<svg viewBox="0 0 128 128" xmlns="http://www.w3.org/2000/svg">
  <defs>
    <radialGradient id="SVGID_1_" cx="62.0167" cy="-55.7716" gradientTransform="matrix(1 0 0 -1 0 0)" gradientUnits="userSpaceOnUse" r="17.0361">
      <stop offset="0.3637" stop-color="#00BFA5"/>
      <stop offset="0.8121" stop-color="#00B29A"/>
      <stop offset="1" stop-color="#00AB94"/>
    </radialGradient>
    <linearGradient id="arm_2_" gradientTransform="matrix(1 0 0 -1 0 0)" gradientUnits="userSpaceOnUse" x1="53.1384" x2="51.0134" y1="-80.0592" y2="-65.6842">
      <stop offset="0.5" stop-color="#FFCA28"/>
      <stop offset="1" stop-color="#FFB300"/>
    </linearGradient>
    <radialGradient id="hairHighlights_1_" cx="60.307989" cy="-17.57755" gradientTransform="matrix(0.9932 0.1161 0.1145 -0.9796 0 0)" gradientUnits="userSpaceOnUse" r="18.0325">
      <stop offset="0.5264" stop-color="#6D4C41" stop-opacity="0"/>
      <stop offset="1" stop-color="#6D4C41"/>
    </radialGradient>
  </defs>
  <path id="shoe_1_" d="M102.66,116.6 C102.66,116.6 98.63,115 96.62,113.46 C94.74,112.02 93.04,110.06 91.87,109.02 C91.11,108.33 90.44,108.02 89.85,108.02 C89.25,108.02 88.72,108.33 88.27,108.88 L85.69,112.12 C84.61,113.9 85.53,116.23 85.53,116.23 C85.53,116.23 82.83,119.09 87.33,120.07 C91.94,121.08 97.46,121.63 97.46,121.63 C97.75,121.68 98.1,121.71 98.48,121.71 C100.38,121.71 103.08,121.02 103.94,119.05 C103.94,119.05 105.23,117.62 102.66,116.6 Z" fill="#4568AC"/>
  <path id="pants_1_" d="M85.26,111.54 L70.08,109.7 C70.07,109.7 75.21,93.88 76.72,86.39 C76.72,86.39 64.18,90.11 57.74,90.11 C57.74,90.11 56.96,103.51 56.69,109.89 C56.33,118.33 58.94,120.8 62.97,121.7 C63.89,121.91 64.98,122 66.18,122 C71.5,122 79.1,120.26 85.22,119.54 C87.57,119.26 86.94,112.63 85.26,111.54 Z" fill="#616161"/>
  <path id="shoe" d="M47.09,119.63 C47.08,117.56 44.97,115.2 44.97,115.2 L37.35,115.21 L30.5,117.49 C28.84,118.15 27.75,119.74 27.74,121.53 L27.74,122.91 C27.74,123.51 28.23,124 28.83,124 L45.85,123.95 C46.54,123.95 47.1,123.39 47.1,122.69 L47.09,119.63 Z" fill="#4568AC"/>
  <path id="pants" d="M77.43,77.59 C77.4,77.32 77.19,77.12 76.9,77.15 L58.83,78.38 C58.73,78.39 48.52,79.8 42.24,80.34 C34.8,80.98 34.1,88.35 34.4,95.47 C34.65,101.43 36.31,115.14 36.33,115.28 C36.35,115.43 36.44,115.57 36.57,115.65 C36.64,115.69 38.39,116.71 41.51,116.71 C44.65,116.71 46.22,115.66 46.27,115.61 C46.38,115.53 46.46,115.4 46.48,115.26 L49.05,94.55 C50.36,94.49 54.48,94.3 57.81,94.43 C64.26,94.69 70.75,94.35 74.59,90.17 C77.16,87.38 78.12,83.14 77.43,77.59 Z" fill="#7C7C7C"/>
  <path id="head" d="M68.93,28.98 C70.02,25.26 70.62,20.65 70.12,17.88 C70.01,17.26 69.85,16.72 69.63,16.31 C69,15.2 68.16,14.13 67.17,13.17 C67.15,13.15 67.13,13.13 67.11,13.12 C66.89,12.9 66.66,12.69 66.42,12.49 C66.38,12.46 66.34,12.42 66.3,12.39 C66.08,12.2 65.86,12.02 65.63,11.85 C65.58,11.81 65.52,11.77 65.47,11.73 C65.25,11.56 65.02,11.4 64.79,11.25 C64.73,11.21 64.67,11.17 64.61,11.13 C64.38,10.98 64.14,10.83 63.9,10.69 C63.84,10.65 63.78,10.62 63.72,10.58 C63.47,10.44 63.22,10.31 62.97,10.18 C62.92,10.15 62.86,10.12 62.81,10.1 C62.54,9.97 62.26,9.84 61.98,9.72 C61.95,9.71 61.91,9.69 61.88,9.68 C60.33,9.04 58.71,8.67 57.14,8.67 C57.1,8.67 57.06,8.68 57.03,8.68 C56.68,8.68 56.34,8.7 56,8.74 C50.26,9.42 47.01,13.39 45.96,18.55 C45.58,20.42 45.55,22.31 45.81,23.65 C45.84,23.81 46.1,24.99 46.11,25.35 C46.26,26.76 43.48,28.03 43.09,29.57 C42.8,30.72 45.2,31.58 45.38,31.79 C46.29,32.88 44.55,37.79 51.2,38.59 C53.76,38.9 54,38.83 54.8,38.94 C56.39,39.17 55.92,45.62 55.92,45.62 L55.93,45.62 L55.93,45.62 L67.45,43.31 C67.45,43.31 65.92,35.86 67.57,32.61 C68.06,31.62 68.53,30.36 68.93,28.98 Z" fill="#FFCA28"/>
  <path id="mouth" d="M45.93,34.64 C46.85,34.73 47.78,34.56 48.59,34.02 C49.47,33.42 48.92,32.69 47.92,33.06 C47.32,33.29 46.48,33.37 45.72,33.19 L45.93,34.64 Z" fill="#795548"/>
  <path id="eye" d="M50.235,24.461 C50.909,24.47 51.444,25.319 51.429,26.357 C51.415,27.395 50.857,28.23 50.183,28.22 C49.51,28.211 48.975,27.362 48.99,26.324 C49.004,25.285 49.562,24.451 50.235,24.461 Z" fill="#404040"/>
  <path id="eyebrow" d="M49.38,23.52 C48.16,23.75 47.96,22.94 48.42,22.35 C48.76,21.91 49.52,21.6 50.88,22.01 C52.16,22.4 52.63,23.2 52.93,23.7 C53.23,24.2 53.15,24.65 52.84,24.65 C52.42,24.66 50.89,23.24 49.38,23.52 Z" fill="#6D4C41"/>
  <path d="M71.27,48.76 C69.41,42.39 66.24,40.76 63.47,40.76 C60.59,40.76 58.15,42.54 58.15,42.54 C53.25,45.91 53.24,51.05 52.79,57.96 C52.33,64.87 52,78.95 52,78.95 C52,78.95 57.44,81.2 65.71,81.2 L66.36,81.2 C75,81.08 78.2,78.09 78.2,78.09 C78.2,78.09 73.6,56.72 71.27,48.76 Z" fill="url(#SVGID_1_)"/>
  <path id="arm_1_" d="M71.43,66.87 C70.95,63.85 68.67,52.46 68.65,52.35 C68.6,52.1 68.37,51.93 68.11,51.95 L57.86,52.93 C57.72,52.94 57.59,53.02 57.5,53.14 C57.42,53.26 57.39,53.4 57.42,53.54 L60.98,68.75 C59.23,69.8 50.6,74.9 48.13,75.42 C46.46,75.77 43.6,76.17 40.3,76.61 C37.66,76.97 35.02,80.43 33.68,82.46 C33.28,83.07 33.32,83.86 33.76,84.42 C34.09,84.85 34.59,85.07 35.09,85.07 C35.42,85.07 35.75,84.97 36.03,84.77 L39.6,82.65 C40.11,82.72 41.61,82.9 43.65,82.81 C46.17,82.7 48.62,81.62 48.7,81.58 C49.61,81.23 53.96,80.46 58.17,79.71 C61.31,79.15 64.55,78.58 66.74,78.12 C73,76.81 71.86,69.59 71.43,66.87 Z" fill="url(#arm_2_)"/>
  <path d="M69.68,52.88 C69.18,49.97 66.8,46.33 62.9,46.33 C62.56,46.33 62.2,46.36 61.83,46.42 C57.3,47.16 55.96,51.99 56.51,55.15 L58.43,64.78 L71.6,62.51 L69.68,52.88 Z" fill="#04A287"/>
  <path id="hair_2_" d="M70.41,12.98 C67.85,9.84 63.18,7.8 58.72,7.61 C55.73,7.48 52.84,8.05 50.39,9.24 C50.34,9.26 45.66,11.59 44.63,13.86 C43.52,16.29 44.55,17.7 44.81,17.95 C45.21,18.34 46.1,18.21 46.1,18.21 C47.85,18.06 53.45,17.64 56.28,18.19 C56.73,18.28 57.23,18.41 57.44,18.81 C57.53,18.99 57.62,20.12 57.63,20.32 C57.85,22.88 57.66,24.5 58.46,26.11 C58.59,26.37 59.11,26.7 59.11,26.7 L60.13,25.07 C60.78,24.14 61.37,23.33 62.23,23.48 C64.76,23.94 64.48,28.43 61.54,29.54 C61.54,29.54 62.12,33.06 65.35,33.63 C68.18,34.13 68.55,33.5 68.8,32.42 C69.34,30.1 69.97,29.09 70.63,28.02 C71.42,26.76 72.23,25.45 72.77,22.07 C73.33,18.7 72.51,15.55 70.41,12.98 Z" fill="#543930"/>
  <path id="hairHighlights_2_" d="M70.41,12.98 C67.85,9.84 63.18,7.8 58.72,7.61 C55.73,7.48 52.84,8.05 50.39,9.24 C50.34,9.26 45.66,11.59 44.63,13.86 C43.52,16.29 44.55,17.7 44.81,17.95 C45.21,18.34 46.1,18.21 46.1,18.21 C47.85,18.06 53.45,17.64 56.28,18.19 C56.73,18.28 57.23,18.41 57.44,18.81 C57.53,18.99 57.62,20.12 57.63,20.32 C57.85,22.88 57.66,24.5 58.46,26.11 C58.59,26.37 59.11,26.7 59.11,26.7 L60.13,25.07 C60.78,24.14 61.37,23.33 62.23,23.48 C64.76,23.94 64.48,28.43 61.54,29.54 C61.54,29.54 62.12,33.06 65.35,33.63 C68.18,34.13 68.55,33.5 68.8,32.42 C69.34,30.1 69.97,29.09 70.63,28.02 C71.42,26.76 72.23,25.45 72.77,22.07 C73.33,18.7 72.51,15.55 70.41,12.98 Z" fill="url(#hairHighlights_1_)"/>
</svg>
